X: 158
T: the Rising of the Moon   #2
R: march
%S: s:1 b:11
B: O'Neill's 1850 #158
O: O'Brien
Z: 1997 henrik.norbeck@mailbox.swipnet.se
N: Compacted via repeats and multiple endings [JC]
Q: "With Animation"
M: C
L: 1/8
K: A
"^A"|: A3 B c2d2 | e2a2 ge3 |"^>"c3e d2B2 |1 A2A2 G4 :|2 B2A2 A4 \
"^B"|: e2f2 g2a2 | b2a2 ge3 |1 c3d e2f2 | g2a2 e4 :|2 c3e d2B2 | B2A2 A4 |]
